assets/images/hanami_icon_sml.svg

<svg height="94" viewBox="0 0 97 94" width="97" xmlns="http://www.w3.org/2000/svg" xmlns:xlink="http://www.w3.org/1999/xlink"><defs><path id="a" d="m64.8297542 16.8291609v4.8204183c0 2.3784819-.494627 4.6427459-1.3865841 6.6954953 1.6762533-1.4827175 3.6768644-2.6534509 5.9392248-3.3884642l4.5839449-1.489063c8.8340139-2.8702534 18.3364141 1.9713163 21.2066675 10.8052245 2.8703592 8.8339082-1.9713162 18.3362026-10.8053302 21.2064561l-4.5839449 1.4901205c-2.2623604.7350133-4.5686101.9645067-6.7960706.7498193 1.9278501 1.1358335 3.6588857 2.6777751 5.0571031 4.6015006l2.8330269 3.8992721c5.4597212 7.5151145 3.7913996 18.0485427-3.7232919 23.5077351-7.5145858 5.46025-18.0480139 3.7913996-23.5077351-3.7226573l-2.8330269-3.8992721c-1.3982174-1.9247831-2.3289875-4.0473323-2.813779-6.2322783-.4846858 2.184946-1.4154559 4.3074952-2.8136733 6.2322783l-2.8330268 3.8992721c-5.4597212 7.5140569-15.9931494 9.1829073-23.5078409 3.7226573-7.5145858-5.4591924-9.18290734-15.9926206-3.7231862-23.5077351l2.8330269-3.8992721c1.3982174-1.9237255 3.1292531-3.4656671 5.0571031-4.6015006-2.2274605.2146874-4.5337102-.014806-6.7960706-.7498193l-4.5839449-1.4901205c-8.8339822-2.8702535-13.67569996-12.3725479-10.80537251-21.2064561 2.87032746-8.8339082 12.37269591-13.6754779 21.20670981-10.8052245l4.5839449 1.489063c2.2623604.7350133 4.2629715 1.9057467 5.9391191 3.3884642-.8918514-2.0527494-1.3864783-4.3170134-1.3864783-6.6954953v-4.8204183c0-9.28866461 7.5411308-16.8291609 16.8296897-16.8291609 9.2886646 0 16.8297955 7.54049629 16.8297955 16.8291609z"/></defs><g fill="none" fill-rule="evenodd" transform="translate(.2864 .942)" xlink:href="#a"><path d="m23.0123615 57.7191677c-2.2274605.2146874-4.5337102-.014806-6.7960706-.7498193l-4.5839449-1.4901205c-8.8339822-2.8702535-13.67569996-12.3725479-10.80537251-21.2064561 2.87032746-8.8339082 12.37269591-13.6754779 21.20670981-10.8052245l4.5839449 1.489063c2.2623604.7350133 4.2629715 1.9057467 5.9391191 3.3884642-.8918514-2.0527494-1.3864783-4.3170134-1.3864783-6.6954953v-4.8204183c0-9.28866461 7.5411308-16.8291609 16.8296897-16.8291609 9.2886646 0 16.8297955 7.54049629 16.8297955 16.8291609v4.8204183c0 2.3784819-.494627 4.6427459-1.3865841 6.6954953 1.6762533-1.4827175 3.6768644-2.6534509 5.9392248-3.3884642l4.5839449-1.489063c8.8340139-2.8702534 18.3364141 1.9713163 21.2066675 10.8052245 2.8703592 8.8339082-1.9713162 18.3362026-10.8053302 21.2064561l-4.5839449 1.4901205c-2.2623604.7350133-4.5686101.9645067-6.7960706.7498193 1.9278501 1.1358335 3.6588857 2.6777751 5.0571031 4.6015006l2.8330269 3.8992721c5.4597212 7.5151145 3.7913996 18.0485427-3.7232919 23.5077351-7.5145858 5.46025-18.0480139 3.7913996-23.5077351-3.7226573l-2.8330269-3.8992721c-1.3982174-1.9247831-2.3289875-4.0473323-2.813779-6.2322783-.4846858 2.184946-1.4154559 4.3074952-2.8136733 6.2322783l-2.8330268 3.8992721c-5.4597212 7.5140569-15.9931494 9.1829073-23.5078409 3.7226573-7.5145858-5.4591924-9.18290734-15.9926206-3.7231862-23.5077351l2.8330269-3.8992721c1.3982174-1.9237255 3.1292531-3.4656671 5.0571031-4.6015006z" fill="#ff6c89"/><path d="m47.9999587 27.4196981c11.9065811 0 21.5732224 9.6662182 21.5732224 21.5734339 0 11.9061581-9.6666413 21.5734339-21.5732224 21.5734339-11.9064754 0-21.5731166-9.6672758-21.5731166-21.5734339 0-11.9072157 9.6666412-21.5734339 21.5731166-21.5734339z" fill="#ffc9c4"/></g></svg>

<?xml version="1.0" encoding="UTF-8"?>
<svg width="97px" height="94px" viewBox="0 0 97 94" version="1.1" xmlns="http://www.w3.org/2000/svg" xmlns:xlink="http://www.w3.org/1999/xlink">
    <title>hanami_icon_sml</title>
    <defs>
        <path d="M64.8297542,16.8291609 L64.8297542,21.6495792 C64.8297542,24.0280611 64.3351272,26.2923251 63.4431701,28.3450745 C65.1194234,26.862357 67.1200345,25.6916236 69.3823949,24.9566103 L73.9663398,23.4675473 C82.8003537,20.5972939 92.3027539,25.4388636 95.1730073,34.2727718 C98.0433665,43.10668 93.2016911,52.6089744 84.3676771,55.4792279 L79.7837322,56.9693484 C77.5213718,57.7043617 75.2151221,57.9338551 72.9876616,57.7191677 C74.9155117,58.8550012 76.6465473,60.3969428 78.0447647,62.3206683 L80.8777916,66.2199404 C86.3375128,73.7350549 84.6691912,84.2684831 77.1544997,89.7276755 C69.6399139,95.1879255 59.1064858,93.5190751 53.6467646,86.0050182 L50.8137377,82.1057461 C49.4155203,80.180963 48.4847502,78.0584138 47.9999587,75.8734678 C47.5152729,78.0584138 46.5845028,80.180963 45.1862854,82.1057461 L42.3532586,86.0050182 C36.8935374,93.5190751 26.3601092,95.1879255 18.8454177,89.7276755 C11.3308319,84.2684831 9.66251036,73.7350549 15.1222315,66.2199404 L17.9552584,62.3206683 C19.3534758,60.3969428 21.0845115,58.8550012 23.0123615,57.7191677 C20.784901,57.9338551 18.4786513,57.7043617 16.2162909,56.9693484 L11.632346,55.4792279 C2.7983638,52.6089744 -2.04335396,43.10668 0.826973494,34.2727718 C3.69730095,25.4388636 13.1996694,20.5972939 22.0336833,23.4675473 L26.6176282,24.9566103 C28.8799886,25.6916236 30.8805997,26.862357 32.5567473,28.3450745 C31.6648959,26.2923251 31.170269,24.0280611 31.170269,21.6495792 L31.170269,16.8291609 C31.170269,7.54049629 38.7113998,0 47.9999587,0 C57.2886233,0 64.8297542,7.54049629 64.8297542,16.8291609 Z" id="path-1"></path>
    </defs>
    <g id="hanami_icon_sml" stroke="none" fill="none" transform="translate(0.2864, 0.942)" xlink:href="#path-1" fill-rule="evenodd">
        <path d="M23.0123615,57.7191677 C20.784901,57.9338551 18.4786513,57.7043617 16.2162909,56.9693484 L11.632346,55.4792279 C2.7983638,52.6089744 -2.04335396,43.10668 0.826973494,34.2727718 C3.69730095,25.4388636 13.1996694,20.5972939 22.0336833,23.4675473 L26.6176282,24.9566103 C28.8799886,25.6916236 30.8805997,26.862357 32.5567473,28.3450745 C31.6648959,26.2923251 31.170269,24.0280611 31.170269,21.6495792 L31.170269,16.8291609 C31.170269,7.54049629 38.7113998,0 47.9999587,0 C57.2886233,0 64.8297542,7.54049629 64.8297542,16.8291609 L64.8297542,21.6495792 C64.8297542,24.0280611 64.3351272,26.2923251 63.4431701,28.3450745 C65.1194234,26.862357 67.1200345,25.6916236 69.3823949,24.9566103 L73.9663398,23.4675473 C82.8003537,20.5972939 92.3027539,25.4388636 95.1730073,34.2727718 C98.0433665,43.10668 93.2016911,52.6089744 84.3676771,55.4792279 L79.7837322,56.9693484 C77.5213718,57.7043617 75.2151221,57.9338551 72.9876616,57.7191677 C74.9155117,58.8550012 76.6465473,60.3969428 78.0447647,62.3206683 L80.8777916,66.2199404 C86.3375128,73.7350549 84.6691912,84.2684831 77.1544997,89.7276755 C69.6399139,95.1879255 59.1064858,93.5190751 53.6467646,86.0050182 L50.8137377,82.1057461 C49.4155203,80.180963 48.4847502,78.0584138 47.9999587,75.8734678 C47.5152729,78.0584138 46.5845028,80.180963 45.1862854,82.1057461 L42.3532586,86.0050182 C36.8935374,93.5190751 26.3601092,95.1879255 18.8454177,89.7276755 C11.3308319,84.2684831 9.66251036,73.7350549 15.1222315,66.2199404 L17.9552584,62.3206683 C19.3534758,60.3969428 21.0845115,58.8550012 23.0123615,57.7191677 Z" id="Fill-15" fill="#FF6C89"></path>
        <path d="M47.9999587,27.4196981 C59.9065398,27.4196981 69.5731811,37.0859163 69.5731811,48.993132 C69.5731811,60.8992901 59.9065398,70.5665659 47.9999587,70.5665659 C36.0934833,70.5665659 26.4268421,60.8992901 26.4268421,48.993132 C26.4268421,37.0859163 36.0934833,27.4196981 47.9999587,27.4196981 Z" id="Fill-22" fill="#FFC9C4"></path>
    </g>
</svg>
